X:418
T: WILHELM KOMM AN MEINE SEITE
N: E0347
O: Europa, Mitteleuropa, Deutschland, Hochwald, Hellertshausen u.a.
R: historisches Lied, Tod Koenigin Louise (1810)
M: 4/4
L: 1/16
K: F
F2A2 | c4c4c4d2c2 | A4F4z4
G2A2 | B6B2A4c2A2 | G8z4
F2A2 | c4c4f4e2d2 | c3dc4z4
B2A2 | G4d4c4B2c2 | A8z4
F2A2 | c4c4f4e2d2 | c3dc4z4
B2A2 | G4d4c4B2c2 | A8z4

@@@ Tune index: 4068
